src/assets/icon/action/unlock.svg

<svg xmlns="http://www.w3.org/2000/svg" width="24" height="24" fill="currentColor" viewBox="0 0 24 24">
  <path d="M17 8V7c0-2.757-2.243-5-5-5S7 4.243 7 7v3H6c-1.103 0-2 .897-2 2v8c0 1.103.897 2 2 2h12c1.103 0 2-.897 2-2v-8c0-1.103-.897-2-2-2H9V7c0-1.654 1.346-3 3-3s3 1.346 3 3v1h2zm1 4l.002 8H6v-8h12z"/>
</svg>

<svg width="24" height="24" viewBox="0 0 24 24" fill="currentColor" xmlns="http://www.w3.org/2000/svg">
  <path d="M17 6V5C17 2.243 14.757 0 12 0C9.243 0 7 2.243 7 5V10H6C4.897 10 4 10.897 4 12V20C4 21.103 4.897 22 6 22H18C19.103 22 20 21.103 20 20V12C20 10.897 19.103 10 18 10H9V5C9 3.346 10.346 2 12 2C13.654 2 15 3.346 15 5V6H17ZM18 12L18.002 20H6V12H18Z"/>
</svg>
